src/icons/svg/nested.svg

<?xml version="1.0" encoding="UTF-8" standalone="no"?>
<svg width="128px" height="128px" viewBox="0 0 128 128" version="1.1" xmlns="http://www.w3.org/2000/svg" xmlns:xlink="http://www.w3.org/1999/xlink">
    <!-- Generator: Sketch 40 (33762) - http://www.bohemiancoding.com/sketch -->
    <title>nested</title>
    <desc>Created with Sketch.</desc>
    <defs></defs>
    <g id="Page-1" stroke="none" stroke-width="1" fill="none" fill-rule="evenodd">
        <g id="nested" fill="#000000">
            <path d="M0.00174966238,9.20039615 C0.00174966238,14.2441926 3.58251968,18.3329975 7.99962335,18.3329975 C12.416727,18.3329975 15.997497,14.2441926 15.997497,9.20039615 C15.997497,4.15659969 12.416727,0.0677947867 7.99962335,0.0677947867 C3.58251968,0.0677947867 0.00174966238,4.15659969 0.00174966238,9.20039615 L0.00174966238,9.20039615 Z M31.9967437,0.0657968845 L127.978227,0.0657968845 L127.978227,18.3309995 L31.9967437,18.3309995 L31.9967437,0.0657968845 Z M31.9967437,45.7347974 C31.9967437,50.7785939 35.5775138,54.8673988 39.9946174,54.8673988 C44.4117211,54.8673988 47.9924911,50.7785939 47.9924911,45.7347974 C47.9924911,42.4720332 46.468105,39.4571147 43.9935543,37.8257326 C41.5190035,36.1943505 38.4702313,36.1943505 35.9956806,37.8257326 C33.5211298,39.4571147 31.9967437,42.4720332 31.9967437,45.7347974 L31.9967437,45.7347974 Z M63.9917378,36.6001981 L127.978227,36.6001981 L127.978227,54.8654007 L63.9917378,54.8654007 L63.9917378,36.6001981 Z M31.9967437,118.799604 C31.9967437,123.8434 35.5775138,127.932205 39.9946174,127.932205 C44.4117211,127.932205 47.9924911,123.8434 47.9924911,118.799604 C47.9924911,113.755808 44.4117211,109.667003 39.9946174,109.667003 C35.5775138,109.667003 31.9967437,113.755808 31.9967437,118.799604 L31.9967437,118.799604 Z M63.9917378,109.669001 L127.978227,109.669001 L127.978227,127.934203 L63.9917378,127.934203 L63.9917378,109.669001 Z M63.9917378,82.2652027 C63.9917378,87.3089992 67.5725078,91.3978041 71.9896115,91.3978041 C76.4067152,91.3978041 79.9874852,87.3089992 79.9874852,82.2652027 C79.9874852,79.0024385 78.4630991,75.98752 75.9885483,74.3561379 C73.5139976,72.7247558 70.4652254,72.7247558 67.9906746,74.3561379 C65.5161239,75.98752 63.9917378,79.0024385 63.9917378,82.2652027 L63.9917378,82.2652027 Z M95.9867319,73.1345994 L127.978227,73.1345994 L127.978227,91.399802 L95.9867319,91.399802 L95.9867319,73.1345994 Z" id="Shape"></path>
        </g>
    </g>
</svg>

<svg width="128" height="128" xmlns="http://www.w3.org/2000/svg"><path d="M.002 9.2c0 5.044 3.58 9.133 7.998 9.133 4.417 0 7.997-4.089 7.997-9.133 0-5.043-3.58-9.132-7.997-9.132S.002 4.157.002 9.2zM31.997.066h95.981V18.33H31.997V.066zm0 45.669c0 5.044 3.58 9.132 7.998 9.132 4.417 0 7.997-4.088 7.997-9.132 0-3.263-1.524-6.278-3.998-7.91-2.475-1.63-5.524-1.63-7.998 0-2.475 1.632-4 4.647-4 7.91zM63.992 36.6h63.986v18.265H63.992V36.6zm-31.995 82.2c0 5.043 3.58 9.132 7.998 9.132 4.417 0 7.997-4.089 7.997-9.132 0-5.044-3.58-9.133-7.997-9.133s-7.998 4.089-7.998 9.133zm31.995-9.131h63.986v18.265H63.992V109.67zm0-27.404c0 5.044 3.58 9.133 7.998 9.133 4.417 0 7.997-4.089 7.997-9.133 0-3.263-1.524-6.277-3.998-7.909-2.475-1.631-5.524-1.631-7.998 0-2.475 1.632-4 4.646-4 7.91zm31.995-9.13h31.991V91.4H95.987V73.135z" fill-rule="evenodd"/></svg>
